client/public/images/icon_glasses.svg

<svg fill="none" height="20" viewBox="0 0 22 22" width="20" xmlns="http://www.w3.org/2000/svg"><g stroke="#fff"><path d="m11 20.3758-7.315-2.7834c-.48302-.1564-.81014-.6064-.81-1.1141v-6.1025c0-.3752.17963-.72762.48317-.94806.30353-.22044.69427-.2822 1.051-.16614l6.59083 2.5483z"/><path d="m18.315 17.5924-7.315 2.7834v-8.5659l6.5908-2.5483c.3568-.11606.7475-.0543 1.051.16614.3036.22044.4832.57286.4832.94806v6.1025c.0001.5077-.327.9577-.81 1.1141z"/><path d="m6.625 7.87598c1.72589 0 3.125-1.39911 3.125-3.125s-1.39911-3.125-3.125-3.125-3.125 1.39911-3.125 3.125 1.39911 3.125 3.125 3.125z"/><path d="m15.375 7.87598c1.7259 0 3.125-1.39911 3.125-3.125s-1.3991-3.125-3.125-3.125-3.125 1.39911-3.125 3.125 1.3991 3.125 3.125 3.125z"/><path d="m9.75 4.81055c0-.69036.5596-1.25 1.25-1.25s1.25.55964 1.25 1.25"/><path d="m20.375 4.75098h-1.875"/><path d="m3.5 4.75098h-1.875"/><path d="m14.125 14.126 1.875-.625"/></g></svg>

<svg width="20" height="20" viewBox="0 0 22 22" fill="none" xmlns="http://www.w3.org/2000/svg">
<path fillRule="evenodd" clipRule="evenodd" d="M11 20.3758L3.685 17.5924C3.20198 17.436 2.87486 16.986 2.875 16.4783V10.3758C2.875 10.0006 3.05463 9.64818 3.35817 9.42774C3.6617 9.2073 4.05244 9.14554 4.40917 9.2616L11 11.8099V20.3758Z" stroke="white" strokeWidth="1.5" strokeLinecap="round" strokeLinejoin="round"/>
<path fillRule="evenodd" clipRule="evenodd" d="M18.315 17.5924L11 20.3758V11.8099L17.5908 9.2616C17.9476 9.14554 18.3383 9.2073 18.6418 9.42774C18.9454 9.64818 19.125 10.0006 19.125 10.3758V16.4783C19.1251 16.986 18.798 17.436 18.315 17.5924V17.5924Z" stroke="white" strokeWidth="1.5" strokeLinecap="round" strokeLinejoin="round"/>
<path fillRule="evenodd" clipRule="evenodd" d="M6.625 7.87598C8.35089 7.87598 9.75 6.47687 9.75 4.75098C9.75 3.02509 8.35089 1.62598 6.625 1.62598C4.89911 1.62598 3.5 3.02509 3.5 4.75098C3.5 6.47687 4.89911 7.87598 6.625 7.87598Z" stroke="white" strokeWidth="1.5" strokeLinecap="round" strokeLinejoin="round"/>
<path fillRule="evenodd" clipRule="evenodd" d="M15.375 7.87598C17.1009 7.87598 18.5 6.47687 18.5 4.75098C18.5 3.02509 17.1009 1.62598 15.375 1.62598C13.6491 1.62598 12.25 3.02509 12.25 4.75098C12.25 6.47687 13.6491 7.87598 15.375 7.87598Z" stroke="white" strokeWidth="1.5" strokeLinecap="round" strokeLinejoin="round"/>
<path d="M9.75 4.81055C9.75 4.12019 10.3096 3.56055 11 3.56055C11.6904 3.56055 12.25 4.12019 12.25 4.81055" stroke="white" strokeWidth="1.5" strokeLinecap="round" strokeLinejoin="round"/>
<path d="M20.375 4.75098H18.5" stroke="white" strokeWidth="1.5" strokeLinecap="round" strokeLinejoin="round"/>
<path d="M3.5 4.75098H1.625" stroke="white" strokeWidth="1.5" strokeLinecap="round" strokeLinejoin="round"/>
<path d="M14.125 14.126L16 13.501" stroke="white" strokeWidth="1.5" strokeLinecap="round" strokeLinejoin="round"/>
</svg>
